svg/cloud-upload.svg

<?xml version="1.0" encoding="UTF-8"?>
<svg xmlns="http://www.w3.org/2000/svg" xmlns:xlink="http://www.w3.org/1999/xlink" width="32" height="32" viewBox="0 0 32 32">
<path fill-rule="nonzero" fill="rgb(0%, 0%, 0%)" fill-opacity="1" d="M 28.152344 15.066406 C 28.058594 12.917969 26.992188 10.929688 25.253906 9.664062 C 23.515625 8.402344 21.292969 8 19.222656 8.578125 C 17.789062 6.433594 15.371094 5.121094 12.800781 5.121094 C 8.707031 5.125 5.335938 8.332031 5.128906 12.421875 C 2.128906 13.246094 0 16.015625 0 19.199219 C 0 23.085938 3.152344 26.238281 7.039062 26.242188 L 26.238281 26.242188 C 29.417969 26.238281 31.996094 23.660156 32 20.480469 C 32 18.027344 30.410156 15.828125 28.152344 15.066406 M 19.386719 17.09375 L 16.640625 14.34375 L 16.640625 21.761719 L 15.359375 21.761719 L 15.359375 14.34375 L 12.613281 17.09375 L 11.707031 16.1875 L 16 11.894531 L 20.292969 16.1875 Z M 19.386719 17.09375 "/>
</svg>

<svg role="img" viewBox="0 0 32 32" xmlns="http://www.w3.org/2000/svg"><path d="M28.152 15.066a7.06 7.06 0 0 0-2.898-5.402 7.05 7.05 0 0 0-6.031-1.086C17.789 6.434 15.37 5.121 12.8 5.121a7.687 7.687 0 0 0-7.672 7.3C2.129 13.247 0 16.017 0 19.2a7.046 7.046 0 0 0 7.04 7.043h19.198A5.77 5.77 0 0 0 32 20.48c0-2.453-1.59-4.652-3.848-5.414m-8.765 2.028-2.746-2.75v7.418h-1.282v-7.418l-2.746 2.75-.906-.907L16 11.896l4.293 4.293Zm0 0" fill="rgb(0%, 0%, 0%)"/></svg>
